X:1
T:Cairntoul
T:Cairntoul
T:Alexander Walker
C:Alexander Walker
L:1/8
M:2/2
K:G
V:1 treble 
V:1
 F | G2 D>G B,G,G,B, | CEDB, EAFD | G2 DG B,G,G,c | EAFD (G2 G) :| c | BGBd g2 gf | edcB AGFD | %8
 BGBd g2 gf | edce d2 dc | BGBd g2 (gf) | edcB AGFD | G2 DC B,CDc | BGAF (G2 G) || %14

